X: 1
T:Irish Washerwoman
M:6/8
L:1/8
Q:160
R:jig
F:http://thewhistler.buffcore.com/music/irishwasherwoman.abc
N:         2003-08-13 02:03:03 UT
K:G
|: d|"G"BGG DGG|"G"BGB dcB|"Am"cAA EAA|"Am"cAc"D7"edc|
"G"BGG DGG|"G"BGB dcB|"Am"cBc"D7"Adc|"G"BGG G2:|
|:g/2a/2|"G"bgg dgg|"G"bgb bag|"D"aff dff|"D"afa agf|
"C"egg"G"dgg|"C"cgg"G"Bgg|"Am"cBc"D7"Adc|"G"BGG G2 :|
